packages/kaspersky-hexa-ui-icons/src/iconsSVGs/24/Made.svg

<svg width="24" height="24" viewBox="0 0 24 24" fill="none" xmlns="http://www.w3.org/2000/svg">
<path fill-rule="evenodd" clip-rule="evenodd" d="M1.9218 7.74599C1.53128 7.35547 1.53128 6.7223 1.9218 6.33178L6.33178 1.9218C6.7223 1.53128 7.35547 1.53128 7.74599 1.9218L12.0017 6.17747L15.2388 2.94033C16.1918 1.98734 17.7369 1.98734 18.6899 2.94033L21.063 5.31343C22.016 6.26643 22.016 7.81153 21.063 8.76452L17.8259 12.0017L22.0786 16.2544C22.4691 16.6449 22.4691 17.2781 22.0786 17.6686L17.6686 22.0786C17.2781 22.4691 16.6449 22.4691 16.2544 22.0786L12.0017 17.8259L8.53237 21.2951C8.34484 21.4827 8.09049 21.588 7.82528 21.588L3.41531 21.5881C3.15009 21.5881 2.89574 21.4828 2.7082 21.2952C2.52066 21.1077 2.4153 20.8533 2.4153 20.5881L2.41528 16.1781C2.41528 15.9128 2.52064 15.6585 2.70818 15.471L6.17747 12.0017L1.9218 7.74599ZM7.59168 10.5874L10.5874 7.59168L9.46334 6.46758L8.40425 7.52667C8.01373 7.91719 7.38056 7.91719 6.99004 7.52667C6.59951 7.13615 6.59951 6.50298 6.99004 6.11246L8.04913 5.05336L7.03889 4.04312L4.04312 7.03889L7.59168 10.5874ZM13.4159 16.4116L16.9615 19.9573L19.9573 16.9615L18.9103 15.9146L17.7811 17.0438C17.3906 17.4343 16.7574 17.4343 16.3669 17.0438C15.9763 16.6533 15.9763 16.0201 16.3669 15.6296L17.4961 14.5004L16.4116 13.4159L13.4159 16.4116ZM17.2757 4.35454C17.1037 4.1826 16.825 4.1826 16.653 4.35454L15.2432 5.76438L18.239 8.76012L19.6488 7.35031C19.8207 7.17837 19.8207 6.89959 19.6488 6.72765L17.2757 4.35454ZM4.41528 16.5923L13.829 7.17859L16.8248 10.1743L7.41104 19.588L4.4153 19.5881L4.41528 16.5923Z" fill="black"/>
</svg>

<svg xmlns="http://www.w3.org/2000/svg" width="24" height="24" fill="none" viewBox="0 0 24 24"><path fill="#000" fill-rule="evenodd" d="M1.9216 7.7459c-.3906-.3906-.3906-1.0237 0-1.4142l4.41-4.41c.3905-.3905 1.0236-.3905 1.4142 0l4.2556 4.2556 3.2372-3.237c.953-.953 2.4981-.953 3.451 0l2.3732 2.373c.9529.953.9529 2.4981 0 3.4511l-3.2372 3.2371 4.2528 4.2528c.3905.3905.3905 1.0237 0 1.4142l-4.41 4.41c-.3905.3905-1.0237.3905-1.4142 0l-4.2528-4.2528-3.4693 3.4693a1 1 0 0 1-.707.2929l-4.41.0001a1 1 0 0 1-1-1v-4.4101c0-.2652.1053-.5195.2928-.7071l3.4693-3.4693zm5.6698 2.8414 2.9958-2.9957-1.1241-1.1241-1.059 1.059c-.3906.3906-1.0238.3906-1.4143 0s-.3905-1.0236 0-1.4142l1.059-1.059L7.0387 4.043 4.043 7.0388zm5.8242 5.8242 3.5457 3.5457 2.9957-2.9958-1.0469-1.047-1.1293 1.1293c-.3905.3905-1.0237.3905-1.4142 0s-.3905-1.0237 0-1.4142l1.1293-1.1293-1.0845-1.0844zm3.8598-12.057a.44.44 0 0 0-.6226 0l-1.4099 1.4098L18.2387 8.76l1.4098-1.4098a.44.44 0 0 0 0-.6227zM4.415 16.5921l9.4137-9.4137 2.9958 2.9957-9.4137 9.4137-2.9957.0001z"/></svg>
